build/Karasa-Jaga/scalable/places/folder-remote-symbolic.svg

<svg height="16" width="16" xmlns="http://www.w3.org/2000/svg"><path d="m1.7714844 0c-.2281974 0-.3164586.2107768-.4121094.4277344l-.2402344.5429688.0996094 4.703125c.00895-.0004971.019339.00306.027344-.00195h3.1953122l.5273438-.4160188h-3v-3.21875h12.0625v2.4882812h.808594l.03906-2.9355468c.009902-.2368992-.181952-.4277344-.410154-.4277344h-8.4882812l-.7421876-1.1621094z" fill="#ccc"/><path d="m1.0036823 4.7225902h3.1960643l1.4486719-1.1733648h9.3481195c.23712 0 .442203.1913211.428016.4280169l-.518141 8.6455097c-.01417.236696-.190895.428015-.428015.428015h-12.9565752c-.23712 0-.411612-.191464-.4280156-.428015l-.51814473-7.4721449c-.01640366-.2365529.19108204-.4186.42801983-.4280169z" fill="#ccc"/><path d="m6 13v1h-6v1h6v1h4v-1h6v-1h-6v-1zm1 1h2v1h-2z" fill="#bebebe"/></svg>

<?xml version="1.0" encoding="UTF-8" standalone="no"?>
<!-- Created with Inkscape (http://www.inkscape.org/) -->

<svg
   xmlns:dc="http://purl.org/dc/elements/1.1/"
   xmlns:cc="http://creativecommons.org/ns#"
   xmlns:rdf="http://www.w3.org/1999/02/22-rdf-syntax-ns#"
   xmlns:svg="http://www.w3.org/2000/svg"
   xmlns="http://www.w3.org/2000/svg"
   xmlns:sodipodi="http://sodipodi.sourceforge.net/DTD/sodipodi-0.dtd"
   xmlns:inkscape="http://www.inkscape.org/namespaces/inkscape"
   width="16px"
   height="16px"
   id="svg3925"
   version="1.1"
   inkscape:version="0.92.2 (unknown)"
   sodipodi:docname="folder-remote-symbolic.svg">
  <defs
     id="defs3927" />
  <sodipodi:namedview
     id="base"
     pagecolor="#ffffff"
     bordercolor="#666666"
     borderopacity="1.0"
     inkscape:pageopacity="0.0"
     inkscape:pageshadow="2"
     inkscape:zoom="22.627417"
     inkscape:cx="6.1553256"
     inkscape:cy="-2.6912829"
     inkscape:current-layer="layer1"
     showgrid="false"
     inkscape:grid-bbox="true"
     inkscape:document-units="px"
     inkscape:window-width="1366"
     inkscape:window-height="706"
     inkscape:window-x="0"
     inkscape:window-y="0"
     inkscape:window-maximized="1"
     inkscape:snap-global="false">
    <inkscape:grid
       type="xygrid"
       id="grid5642" />
  </sodipodi:namedview>
  <metadata
     id="metadata3930">
    <rdf:RDF>
      <cc:Work
         rdf:about="">
        <dc:format>image/svg+xml</dc:format>
        <dc:type
           rdf:resource="http://purl.org/dc/dcmitype/StillImage" />
        <dc:title></dc:title>
      </cc:Work>
    </rdf:RDF>
  </metadata>
  <g
     id="layer1"
     inkscape:label="Layer 1"
     inkscape:groupmode="layer">
    <path
       style="fill:#cccccc;fill-opacity:1;stroke:none"
       mask="none"
       clip-path="none"
       d="M 1.7714844,0 C 1.543287,0 1.4550258,0.2107768 1.359375,0.4277344 L 1.1191406,0.9707032 1.21875,5.6738282 c 0.00895,-4.971e-4 0.019339,0.00306 0.027344,-0.00195 H 4.4414062 L 4.96875,5.2558594 h -3 v -3.21875 h 12.0625 v 2.4882812 h 0.808594 l 0.03906,-2.9355468 C 14.888806,1.3529446 14.696952,1.1621094 14.46875,1.1621094 H 5.9804688 L 5.2382812,0 Z"
       id="path4924"
       inkscape:connector-curvature="0" />
    <path
       sodipodi:nodetypes="sccssssssss"
       inkscape:connector-curvature="0"
       id="path4932"
       d="M 1.0036823,4.7225902 H 4.1997466 L 5.6484185,3.5492254 h 9.3481195 c 0.23712,0 0.442203,0.1913211 0.428016,0.4280169 l -0.518141,8.6455097 c -0.01417,0.236696 -0.190895,0.428015 -0.428015,0.428015 H 1.5218228 c -0.23712,0 -0.411612,-0.191464 -0.4280156,-0.428015 L 0.57566247,5.1506071 C 0.55925881,4.9140542 0.76674451,4.7320071 1.0036823,4.7225902 Z"
       style="fill:#cccccc;fill-opacity:1;stroke:none" />
    <g
       id="g859">
      <path
         sodipodi:nodetypes="cccccccccccccccccc"
         id="rect4197"
         style="color:#000000;isolation:auto;mix-blend-mode:normal;solid-color:#000000;fill:#bebebe;color-rendering:auto;image-rendering:auto;shape-rendering:auto"
         d="m 6,13 v 1 H 0 v 1 h 6 v 1 h 4 v -1 h 6 v -1 h -6 v -1 z m 1,1 h 2 v 1 H 7 Z"
         inkscape:connector-curvature="0" />
    </g>
  </g>
</svg>
